X:120
T: Navvy on the Line
S: "Music from Ireland 3" (Bulmer & Sharpley)
N: incorrectly listed as "Navvy on the Shore"
R: reel
M: 4/4
L: 1/8
K: G
(3DEF|G2 ge dBGB|AGBG AGEF|G2 ge dBGB|AGAB A2 GA|
G2 ge dBGB|AGBG AGEG|g2 gd edBG|AGEF G2 :|
Bd|g2 dB GABd|eBdB GABd|g2 dB GABd|eBdB AG E2|
g2 dB GABd|edBA GABd|g2 gd edBG|AGEF G2 :|
